X:1
T:Joy, joy doth so arise - Morley
T:James Gibb editions
T:#
%%score { 1 | 2 } 3
L:1/8
M:4/4
K:C
V:1 treble nm="Soprano I" snm="S"
V:2 treble 
V:3 treble-8 nm="Tenor" snm="T"
V:1
"^Joy, joy doth so arise" z8 | z8 | z8 | d4 d2"^Thomas Morley\n(1557-1603)" d2 | B3 c d2 B2 | %5
w: |||Joy, joy doth|so a- rise and|
 c6 B2 |[M:4/4] A2 G2 (^FGAF) | G2 d2 d2 d2 | B3 c d2 B2 | c6 B2 | A2 B2 A4 | G8 | z2 g2 g2 g2 | %13
w: so con-|tent, con- tent * * *|me, joy, joy doth|so a- rise and|so con-|tent, con- tent|me,|When I but|
 e4 c4 | f4 e4 | d4 e2 d2 | ^c2 A2 (d4- | d2 ^cB c4) | d2 d2 d2 d2 | %19
w: see thee,|O my|life's, O my|life's fair trea\-||sure. Joy, joy doth|
[Q:1/4=120][Q:1/4=120] B3 c d2 B2 | c6 B2 | A4 G4 | A8 | G4 d4 | e4 ^c4 | d4 B4 | c2 B2 A4- | %27
w: so a- rise and|so con-|tent, con-|tent|me, That|see- ing|makes me|blind, a- las,|
 A4 d4 | e4 ^f4 | g8 | ^f2 d2 =f4- | f2 e2 d4 | c4 _B4 | A2 c2 d2 e2 | f6 e2 | d8 | ^c2 f2 e2 d2 | %37
w: * through|too great|plea-|sure. But if|* such blind-|ing, sweet|love, sweet love, doth|so de-|light|thee, such blind- ing|
 ^c2 d2 e2 d2 | ^c2 d4 c2 | d4 z4 | z2 d2 d2 c2 | B4 A4 | B3 c B2 A2- | A2 G4 F2 | E2 D2 E4 | %45
w: doth de- light thee,|sweet love, Come|come,|come, love, and|more thus,|yet and yet more,|* blind me|still and spite|
 ^F2 (G3 F/E/ F2) | G4 D4 | z2 g2 g2 f2 | e2 c2 e2 d2 | c2 g2 g2 f2 | e2 c2 e2 (dc) | B2 G2 c2 B2 | %52
w: me, still * * *|spite me;|Come, love, and|more thus, more and|more come, love, and|more thus, more and *|more thus blind me|
 A2 G2 A4 | G2 d2 d2 c2 | B3 c B2 A2- | A2 G4 ^F2 | G2 g2 g2 f2 | e3 f e2 d2 | ^c2 d4 c2 | %59
w: still and spite|me; Come, love, and|more and more thus,|* more and|more, come, love, and|more and more thus,|ay thus, ay|
 d2 d4 c2 | B2 G2 (B2 A2) | G8 | z2 g2 g2 f2 | e2 c2 e2 d2 | c2 c2 G2 ^F2 | G4 A2 (G2- | %66
w: thus, blind me|still and spite *|me.|Come, love, and|more thus, more and|more thus blind me|still and spite|
 G2 ^FE F4) | G4 d4 | e4 e4 | (d6 c2) | B8 |] %71
w: |me, ay|do and|spite *|me.|
V:2
 d4 d2 d2 | B3 c d2 B2 | c4 B4 | A2 G2 A4 | G2 g2 g2 g2 | e3 f g2 e2 |[M:4/4] f2 e2 (d2 c2) | B8 | %8
w: Joy, joy doth|so a- rise and|so con-|tent, con- tent|me, joy, joy doth|so a- rise and|so con- tent *|me,|
 z2 g2 g2 g2 | e3 f g2 e2 | ^f2 g4 f2 | g2 d2 d2 d2 | B4 G4 | c4 A4 | d4 c4- | c4 B4 | A4 G2 F2 | %17
w: joy, joy doth|so a- rise and|so con- tent|me, When I but|see thee,|O my|life's fair|* trea-|sure, O my|
 E2 D2 E4 | ^F2 (G4 F2) | G8 | z2 G2 G2 G2 | ^F2 D2 G3 G | ^F2 G2 (G2 F2) | G8 | G4 A4 | ^F4 G4 | %26
w: life's fair trea-|sure, trea\- *|sure.|Joy, joy doth|so a- rise and|so con- tent *|me,|That see-|ing makes|
 E4 ^F2 G2- | G2 ^F2 G4- | G4 (d4- | d4 ^c4) | d8 | d4 f4- | f2 e2 d4 | c3 _B A2 G2 | _B2 A2 (A4- | %35
w: me blind through|* too great|* plea\-||sure.|But if|* such blind-|ing, sweet love doth|so de- light|
 A2 GF G4) | A4 z2 f2 | e2 d2 ^c2 d2 | e2 f2 e4 | d2 d2 d2 c2 | B3 c B2 A2- | A2 G4 ^F2 | %42
w: |thee, such|blind- ing doth de-|light, de- light|thee, Come, love, and|more and more thus,|* more and|
 G2 g2 g2 f2 | e3 f e2 d2 | ^c2 d4 c2 | d2 d4 =c2 | B2 G2 (B2 A2) | G8 | z2 g2 g2 f2 | %49
w: more, come, love, and|more and more thus,|ay thus, ay|thus, blind me|still and spite *|me;|Come, love, and|
 e2 c2 e2 d2 | c2 c2 G2 ^F2 | G4 A2 (G2- | G2 ^FE F4) | G8 | z2 d2 d2 c2 | B4 A4 | B3 c B2 A2- | %57
w: more thus, more and|more thus blind me|still and spite||me;|Come, Love, and|more thus|yet and yet more,|
 A2 G4 F2 | E2 D2 E4 | ^F2 (G3 F/E/ F2) | G4 D4 | z2 g2 g2 f2 | e2 c2 e2 d2 | c2 g2 g2 f2 | %64
w: * blind me|still and spite|me, and * * *|spite me;|Come, love, and|more thus, more and|more, come, love, and|
 e2 c2 e2 (dc) | B2 G2 c2 B2 | A2 G2 A4 | G4 B4 | A4 (G4- | G4 ^F4) | G8 |] %71
w: more, thus more and *|more thus blind me|still and spite|me, ay,|and spite||me.|
V:3
 z8 | g4 g2 g2 | e3 f g2 e2 | ^f2 g4 f2 | g8 | c8 |[M:4/4][K:treble-8] d8 | G8 | G8 | c8 | %10
w: |Joy, joy doth|so a- rise and|so con- tent|me,|and|so|con-|tent|me,|
 z2 d2 d2 d2 | B4 G2 g2 | g2 g2 e4 | c4 f4 | _B4 c4 | G8 | A8- | A8 | d8 | z2 G2 G2 G2 | %20
w: When I but|see thee, when|I but see|thee, O|my life's|fair|trea\-||sure.|Joy, joy doth|
 E3 F G2 G2 | D4 E4 | D8 | G8 | z8 | d4 e4 | c4 d4- | d4 G4 | c4 d4 | e8 | d4 d4 | d6 d2 | A4 _B4 | %33
w: so a- rise and-|so con-|tent|me,||That blind|I am|* through|too great|plea-|sure. But|if such|blind- ing,|
 F2 f4 e2 | d6 c2 | _B8 | A4 A4 | A4 A4 | A8 | d4 d4 | d4 d4 | d6 d2 | G4 d4 | A2 c4 d2 | A8 | d8 | %46
w: sweet love, doth|so de-|light|thee, doth|so de-|light|thee, Come,|love, and|more and|more blind|me still and|spite|me;|
 z2 g2 g2 f2 | e2 c2 e2 d2 | c6 d2 | e4 c2 d2 | A2 c4 d2 | G2 c2 F2 G2 | d8 | G8 | d4 d2 d2 | %55
w: Come, love, and|more yet, yet, yet|more and|more blind me|still, blind me|still and spite and|spite|me;|Come, love, and|
 d4 d4 | G4 d4 | A2 c4 d2 | A8 | d8 | z2 g2 g2 f2 | e2 c2 e2 d2 | c6 d2 | e4 c2 d2 | A2 c4 d2 | %65
w: more and|more blind|me still and|spite|me;|Come, love, and|more yet, yet, yet|more and|more blind me,|still, blind me|
 G2 c2 F2 G2 | d8 | G4 G4 | c4 c4 | d8 | G8 |] %71
w: still and spite, and|spite|me, ay|do, and|spite|me.|

